src/assets/2011.svg

<svg width="2539" height="2395" fill="none" xmlns="http://www.w3.org/2000/svg">
  <g filter="url(#filter0_d)">
    <path d="M1649.98 667.739c-39.37-39.752 74.78-125.163-59.4-163.75C1411.56 452.503 371.069 0 371.069 0L25 587.022s542.139 703.158 585.576 751.408c43.436 48.24 232.718 205.77 361.108 179.95 128.386-25.82 145.126-44.48 156.216-29.4 11.09 15.08-101.29 142.78-27.15 221.58 74.14 78.8 209.99 85.01 306.59 129.51 96.6 44.5-110.81 409.69 277.24 472.41 388.06 62.72 339.78-271.02 367.49-320.15 27.71-49.13 111.65 25.96 155.08 0 43.43-25.96 37.61-125.44 87.98-161.95 50.37-36.5 66.14-19.19 133.68-42.12 67.54-22.94 98.19-170.98 79.18-205.54-19-34.55-59.97-89.56-69.95-109.22-9.99-19.66-12.82-32.52-24.65-64.34-11.83-31.83 19.15-56.25 46.11-112.8s57.88-132.07-13.26-195.67c-71.14-63.61-169.91 20.56-212.43-42.59-42.51-63.159 6.46-107.657-88.03-147.909-94.49-40.253-275.36 86.695-313.92 56.907-38.56-29.788 18.37-101.823-8.35-140.204-26.72-38.38-134.15-119.402-173.53-159.155z" fill="#fff"/>
  </g>
  <defs>
    <filter id="filter0_d" x="0" y="0" width="2538.54" height="2394.3" filterUnits="userSpaceOnUse" color-interpolation-filters="sRGB">
      <feFlood flood-opacity="0" result="BackgroundImageFix"/>
      <feColorMatrix in="SourceAlpha" values="0 0 0 0 0 0 0 0 0 0 0 0 0 0 0 0 0 0 127 0"/>
      <feOffset dy="49"/>
      <feGaussianBlur stdDeviation="12.5"/>
      <feColorMatrix values="0 0 0 0 0 0 0 0 0 0 0 0 0 0 0 0 0 0 0.25 0"/>
      <feBlend in2="BackgroundImageFix" result="effect1_dropShadow"/>
      <feBlend in="SourceGraphic" in2="effect1_dropShadow" result="shape"/>
    </filter>
  </defs>
</svg>

<svg width="2539" height="2395" viewBox="0 0 2539 2395" fill="none" xmlns="http://www.w3.org/2000/svg">
<g filter="url(#filter0_d)">
<path d="M1649.98 667.739C1610.61 627.987 1724.76 542.576 1590.58 503.989C1411.56 452.503 371.069 0 371.069 0L25 587.022C25 587.022 567.139 1290.18 610.576 1338.43C654.012 1386.67 843.294 1544.2 971.684 1518.38C1100.07 1492.56 1116.81 1473.9 1127.9 1488.98C1138.99 1504.06 1026.61 1631.76 1100.75 1710.56C1174.89 1789.36 1310.74 1795.57 1407.34 1840.07C1503.94 1884.57 1296.53 2249.76 1684.58 2312.48C2072.64 2375.2 2024.36 2041.46 2052.07 1992.33C2079.78 1943.2 2163.72 2018.29 2207.15 1992.33C2250.58 1966.37 2244.76 1866.89 2295.13 1830.38C2345.5 1793.88 2361.27 1811.19 2428.81 1788.26C2496.35 1765.32 2527 1617.28 2507.99 1582.72C2488.99 1548.17 2448.02 1493.16 2438.04 1473.5C2428.05 1453.84 2425.22 1440.98 2413.39 1409.16C2401.56 1377.33 2432.54 1352.91 2459.5 1296.36C2486.46 1239.81 2517.38 1164.29 2446.24 1100.69C2375.1 1037.08 2276.33 1121.25 2233.81 1058.1C2191.3 994.941 2240.27 950.443 2145.78 910.191C2051.29 869.938 1870.42 996.886 1831.86 967.098C1793.3 937.31 1850.23 865.275 1823.51 826.894C1796.79 788.514 1689.36 707.492 1649.98 667.739Z" fill="white"/>
</g>
<defs>
<filter id="filter0_d" x="0" y="0" width="2538.54" height="2394.3" filterUnits="userSpaceOnUse" color-interpolation-filters="sRGB">
<feFlood flood-opacity="0" result="BackgroundImageFix"/>
<feColorMatrix in="SourceAlpha" type="matrix" values="0 0 0 0 0 0 0 0 0 0 0 0 0 0 0 0 0 0 127 0"/>
<feOffset dy="49"/>
<feGaussianBlur stdDeviation="12.5"/>
<feColorMatrix type="matrix" values="0 0 0 0 0 0 0 0 0 0 0 0 0 0 0 0 0 0 0.25 0"/>
<feBlend mode="normal" in2="BackgroundImageFix" result="effect1_dropShadow"/>
<feBlend mode="normal" in="SourceGraphic" in2="effect1_dropShadow" result="shape"/>
</filter>
</defs>
</svg>
